svgs/briar.svg

<svg width="24" height="24" viewBox="0 0 24 24" fill="none" xmlns="http://www.w3.org/2000/svg">
<path d="M7 11H10V21C10 21.5523 9.55228 22 9 22H8C7.44772 22 7 21.5523 7 21V11Z" fill="black"/>
<path d="M7 4C7 3.44772 7.44772 3 8 3H9C9.55228 3 10 3.44772 10 4V6H7V4Z" fill="black"/>
<path d="M18 14L15 14L15 4C15 3.44771 15.4477 3 16 3H17C17.5523 3 18 3.44772 18 4L18 14Z" fill="black"/>
<path d="M18 21C18 21.5523 17.5523 22 17 22H16C15.4477 22 15 21.5523 15 21V19H18V21Z" fill="black"/>
<path d="M11 18V15H21C21.5523 15 22 15.4477 22 16V17C22 17.5523 21.5523 18 21 18H11Z" fill="black"/>
<path d="M4 18C3.44772 18 3 17.5523 3 17V16C3 15.4477 3.44772 15 4 15H6V18H4Z" fill="black"/>
<path d="M14 7L14 10L4 10C3.44771 10 3 9.55228 3 9V8C3 7.44772 3.44772 7 4 7L14 7Z" fill="black"/>
<path d="M21 7C21.5523 7 22 7.44772 22 8V9C22 9.55228 21.5523 10 21 10H19V7L21 7Z" fill="black"/>
</svg>

<svg xmlns="http://www.w3.org/2000/svg" width="24" height="24" fill="none" viewBox="0 0 24 24"><path fill="#000" d="M7 11h3v10a1 1 0 0 1-1 1H8a1 1 0 0 1-1-1zm0-7a1 1 0 0 1 1-1h1a1 1 0 0 1 1 1v2H7zm11 10h-3V4a1 1 0 0 1 1-1h1a1 1 0 0 1 1 1zm0 7a1 1 0 0 1-1 1h-1a1 1 0 0 1-1-1v-2h3zm-7-3v-3h10a1 1 0 0 1 1 1v1a1 1 0 0 1-1 1zm-7 0a1 1 0 0 1-1-1v-1a1 1 0 0 1 1-1h2v3zM14 7v3H4a1 1 0 0 1-1-1V8a1 1 0 0 1 1-1zm7 0a1 1 0 0 1 1 1v1a1 1 0 0 1-1 1h-2V7z"/></svg>
